X:1
T:He’s More Than All This World To Me
T:He’s More Than All This World To Me
T:Ira Lee Winterrowd
T:Austin Taylor, 1910
T:Public Domain Courtesy of the Cyber Hymnal™
T:Public Domain Courtesy of the Cyber Hymnal™
C:Ira Lee Winterrowd
Z:Public Domain
Z:Courtesy of the Cyber Hymnal™
%%score ( 1 2 ) ( 3 4 )
L:1/8
Q:1/4=85
M:6/8
K:Ab
V:1 treble 
V:2 treble 
V:3 bass 
V:4 bass 
V:1
 [CE] | [Ec]>[=D=B][Ec] [CA][DG][EA] | [DB][FA][DF] [CE]2 [CE] | [EA]>[EA][EA] [EA][EA][EA] | %4
w: 1.~This|world has its trea- sures of|sil- ver and gold, Its|pearls and its dia- monds, its|
w: 2.~This|world with its show of al-|lure- ments of wrong, May|try to en- tice me and|
w: 3.~He|com- forts and cheers me in|tri- als of life; His|arm is a- round me when|
 [EB]>[EB][Ec] !fermata![EB]2 [EB] | [Ec]>[=D=B][Ec] [Ae][Ae][Ae] | [EA][DB][Ec] [Fd]2 [FB] | %7
w: wealth is un- told; But|Je- sus, who died up- on|Cal- va- ry’s tree, Is|
w: take me a- long; But|cling- ing to Je- sus, its|fol- ly I see— He’s|
w: e- vil is rife; A|friend and a lov- ing com-|pan- ion is He— He’s|
 (A>G)[FA] ([FB][=Ac])[Bd] | [Ac]2 [GB] A3 | [EA]2 z3 ||"^Refrain" [CA] | [Fd]2 [Fd] [Fd]2 [_Fd] | %12
w: more * than all * this|world to me.||||
w: more * than all * this|world to me.||He’s|more than all to|
w: more * than all * this|world to me.||||
 c3- [Ec]2 [FA] | [GB]2 [EB] [Ec]2 [EB] | A3- [EA]2 [CE] | [DF]2 [DF] (BA)[DF] | %16
w: ||||
w: me; He’s more|* than all to|me; He’s more|* than all * this|
w: ||||
 [CE]2 [CA] [Ec]2 [EA] | [EB]2 [Ec] (dc)[DB] | A3- [CA]2 |] %19
w: |||
w: world to me, He’s|more than all * to|me. *|
w: |||
V:2
 x | x6 | x6 | x6 | x6 | x6 | x6 | E2 x4 | x3 A2 F | x5 || x | x6 | E2 E x3 | x6 | E2 F x3 | %15
 x3 F2 x | x6 | x3 E2 x | C2 D x2 |] %19
V:3
 [A,,A,] | [A,,A,]>[A,,A,][A,,A,] [A,,E,][B,,E,][C,E,] | [D,F,][D,A,][D,A,] [A,,A,]2 [A,,A,] | %3
w: |||
 [A,,C]>[A,,C][A,,C] [A,,C][A,,C][C,A,] | [E,G,]>[E,G,][E,A,] !fermata![E,G,]2 [E,G,] | %5
w: ||
 [A,,A,]>[A,,A,][A,,A,] [A,,C][A,,C][A,,C] | [A,C]A,A, [D,A,]2 [D,A,] | %7
w: |* He’s more * *|
 ([A,,C]>[B,,D])[C,E] ([D,D][C,E])[B,,F] | [E,E]2 [E,D] C2 D | [A,,C]2 z3 || z | %11
w: ||||
 z2 [D,A,] [D,A,]2 [D,A,] | [A,,A,]2 [A,,A,] [A,,A,]2 z | z2 [E,G,] [E,A,]2 [E,D] | %14
w: than all to|me, He’s more|than all to|
 [A,,C]2 [D,D] [A,,C]2 [A,,A,] | [D,A,]2 [D,A,] [D,A,]2 [D,A,] | [A,,A,]2 [A,,A,] [A,,A,]2 [C,A,] | %17
w: me, He’s more *||* * * than|
 [E,G,]2 [E,A,] (B,A,)[E,G,] | (A,2 F, [A,,E,]2) |] %19
w: all this world * to|me. * *|
V:4
 x | x6 | x6 | x6 | x6 | x6 | x A,A, x3 | x6 | x3 A,,3- | x5 || x | x6 | x6 | x6 | x6 | x6 | x6 | %17
 x3 E,2 x | A,,3- x2 |] %19

